X: 21760
T: King Of The Fairies
R: hornpipe
M: 4/4
K: Edorian
B,2|:E^DEF GFGA|B2B2 G3A|B2E2 EFGE|FGFE D2B,2|
E^DEF GFGA|BAGB d3=c|B2E2 GFE^D|1 E4- E2B,2:|2 E4- E2d2||
e2e2 Bdef|gagf e3f|e2B2 BABc|dedc BcdB|
e2B2 Bdef|gagf e3f|gfeg fedf|e2ed e3f||
g3e f3d|edBc d3e|dBAF GABc|dBAF GFED|
B,2E2 EFGA|B2e2 edef|e2B2 BAGF|E8||

